ti/calendar-outline.svg

<svg version="1.2" baseProfile="tiny" xmlns="http://www.w3.org/2000/svg" viewBox="0 0 24 24" height="1em" width="1em">
  <path d="M19 6.184v-.184c0-1.657-1.343-3-3-3s-3 1.343-3 3h-2c0-1.657-1.343-3-3-3s-3 1.343-3 3v.184c-1.161.415-2 1.514-2 2.816v9c0 1.654 1.346 3 3 3h12c1.654 0 3-1.346 3-3v-9c0-1.302-.839-2.401-2-2.816zm-4-.184c0-.552.447-1 1-1s1 .448 1 1v2c0 .552-.447 1-1 1s-1-.448-1-1v-2zm-8 0c0-.552.447-1 1-1s1 .448 1 1v2c0 .552-.447 1-1 1s-1-.448-1-1v-2zm12 12c0 .551-.448 1-1 1h-12c-.552 0-1-.449-1-1v-6h14v6zm0-7h-14v-2c0-.551.448-1 1-1 0 1.104.896 2 2 2s2-.896 2-2h4c0 1.104.896 2 2 2s2-.896 2-2c.552 0 1 .449 1 1v2z"/>
</svg>

<svg version="1.2" baseProfile="tiny" xmlns="http://www.w3.org/2000/svg" viewBox="0 0 24 24" height="1em" width="1em">
  <path d="M19 6.184V6a3 3 0 1 0-6 0h-2a3 3 0 1 0-6 0v.184A2.997 2.997 0 0 0 3 9v9c0 1.654 1.346 3 3 3h12c1.654 0 3-1.346 3-3V9a2.997 2.997 0 0 0-2-2.816zM15 6a1 1 0 1 1 2 0v2a1 1 0 1 1-2 0V6zM7 6a1 1 0 1 1 2 0v2a1 1 0 1 1-2 0V6zm12 12c0 .551-.448 1-1 1H6c-.552 0-1-.449-1-1v-6h14v6zm0-7H5V9c0-.551.448-1 1-1a2 2 0 0 0 4 0h4a2 2 0 0 0 4 0c.552 0 1 .449 1 1v2z"/>
</svg>
